ion/restaurant-outline.svg

<svg viewBox="0 0 512 512" xmlns="http://www.w3.org/2000/svg"><g stroke-width="32" stroke="#000" fill="none" stroke-linejoin="round"><path d="M57.49 47.74l368.43 368.43v0c14.55 14.55 14.55 38.16 0 52.72v0 0c-14.57 14.55-38.16 14.55-52.72-.001l-90-91.55v0c-5.89-5.99-9.2-14.04-9.2-22.43v-5.53 0c0-8.57-3.43-16.77-9.52-22.78l-11.62-10.73v0c-8.02-7.4-19.25-10.21-29.8-7.44v0h0c-16.67 4.34-34.38-.46-46.56-12.63l-85.43-85.44C40.39 159.67 21.74 83.14 57.49 47.73Z"/><g stroke-linecap="round" stroke-width="32" stroke="#000" fill="none" stroke-linejoin="round"><path d="M400 32l-77.25 77.25v0c-12.01 12-18.76 28.28-18.75 45.26v14.86 0c0 4.24-1.69 8.31-4.69 11.32L288 192"/><path d="M320 224l11.31-11.31v0c3-3.01 7.07-4.7 11.32-4.69h14.86v0c16.97 0 33.25-6.75 45.26-18.75L480 112"/><path d="M440 72l-80 80"/><path d="M200 368l-99.72 100.28v0c-15.62 15.61-40.95 15.61-56.56 0v0l0 0c-15.62-15.62-15.62-40.95-.001-56.56l84.28-83.72"/></g></g></svg>

<svg xmlns="http://www.w3.org/2000/svg" width="512" height="512" viewBox="0 0 512 512"><path d="M57.49,47.74,425.92,416.17a37.28,37.28,0,0,1,0,52.72h0a37.29,37.29,0,0,1-52.72,0l-90-91.55A32,32,0,0,1,274,354.91v-5.53a32,32,0,0,0-9.52-22.78l-11.62-10.73a32,32,0,0,0-29.8-7.44h0A48.53,48.53,0,0,1,176.5,295.8L91.07,210.36C40.39,159.68,21.74,83.15,57.49,47.74Z" style="fill:none;stroke:#000;stroke-linejoin:round;stroke-width:32px"/><path d="M400,32l-77.25,77.25A64,64,0,0,0,304,154.51v14.86a16,16,0,0,1-4.69,11.32L288,192" style="fill:none;stroke:#000;stroke-linecap:round;stroke-linejoin:round;stroke-width:32px"/><path d="M320,224l11.31-11.31A16,16,0,0,1,342.63,208h14.86a64,64,0,0,0,45.26-18.75L480,112" style="fill:none;stroke:#000;stroke-linecap:round;stroke-linejoin:round;stroke-width:32px"/><line x1="440" y1="72" x2="360" y2="152" style="fill:none;stroke:#000;stroke-linecap:round;stroke-linejoin:round;stroke-width:32px"/><path d="M200,368,100.28,468.28a40,40,0,0,1-56.56,0h0a40,40,0,0,1,0-56.56L128,328" style="fill:none;stroke:#000;stroke-linecap:round;stroke-linejoin:round;stroke-width:32px"/></svg>
